**kern	**silbe	**kern	**silbe
*ICvox	*	*ICvox	*
=1	=1	=1	=1
*A:	*	*A:	*
*M4/4	*	*M4/4	*
*clefG2	*	*clefG2	*
2..r	.	4f#	Help!
.	.	4r	.
.	.	2r	.
8e	I	.	.
=2	=2	=2	=2
4f#	need	1r	.
8d	some-	.	.
8d	-bo-	.	.
4e	_	.	.
4d	-dy	.	.
=3	=3	=3	=3
2r	.	4g	Help!
.	.	4r	.
512%85r	.	2r	.
1024%171B	Not	.	.
1024%171d	just	.	.
=4	=4	=4	=4
8f#	a-	1r	.
4e	-ny	.	.
4.e	bo-	.	.
8d	_	.	.
8B	-dy	.	.
=5	=5	=5	=5
2r	.	4g#	Help!
.	.	4r	.
8r	.	2r	.
8B	You	.	.
8d	know	.	.
8B	I	.	.
=6	=6	=6	=6
4f#	need	1r	.
8d	some-	.	.
4.e	-one	.	.
4r	.	.	.
=7	=7	=7	=7
1r	.	4.cc#	Help!
.	.	8b	_
.	.	4a	_
.	.	4r	.
=8	=8	=8	=8
1r	.	1r	.
=9	=9	=9	=9
4r	.	1r	.
8c#	When	.	.
4.c#	I	.	.
4c#	was	.	.
=10	=10	=10	=10
4c#	young-	1r	.
8c#	-er	.	.
4c#	so	.	.
4.c#	much	.	.
=11	=11	=11	=11
4c#	young-	1r	.
8c#	-er	.	.
4c#	than	.	.
4e	to-	.	.
[8c#	day	.	.
=12	=12	=12	=12
2c#]	_	1r	.
8B	_	.	.
8A	_	.	.
4r	.	.	.
=13	=13	=13	=13
8r	.	1r	.
8B#	I	.	.
8c#	ne-	.	.
8B#	-ver	.	.
4c#	need-	.	.
8B#	-ed	.	.
8r	.	.	.
=14	=14	=14	=14
8c#	a-	1r	.
4B#	-ny-	.	.
4c#	-bo-	.	.
4.c#	-dy's	.	.
=15	=15	=15	=15
4d	help	1r	.
4d	in	.	.
8d	a-	.	.
4d	-ny	.	.
[8c#	way	.	.
=16	=16	=16	=16
4c#]	_	1r	.
2.r	.	.	.
=17	=17	=17	=17
4r	.	1r	.
4c#	But	.	.
4c#	now	.	.
4c#	those	.	.
=18	=18	=18	=18
4c#	days	1r	.
8c#	are	.	.
4c#	gone	.	.
4.c#	I'm	.	.
=19	=19	=19	=19
4c#	not	1r	.
4c#	so	.	.
4c#	self	.	.
4e	a-	.	.
=20	=20	=20	=20
2c#	-ssured	1r	.
8B	_	.	.
8A	_	.	.
4r	.	.	.
=21	=21	=21	=21
4r	.	1r	.
8c#	Now	.	.
8B#	I	.	.
4.c#	find	.	.
8B#	I've	.	.
=22	=22	=22	=22
8c#	change	1r	.
8B#	my	.	.
4c#	mind	.	.
4r	.	.	.
8r	.	.	.
8A	I've	.	.
=23	=23	=23	=23
4d	o-	1r	.
4d	-pened	.	.
4d	up	.	.
8d	the	.	.
[8c#	doors	.	.
=24	=24	=24	=24
4c#]	_	1r	.
2.r	.	.	.
=25	=25	=25	=25
4e	Help	1r	.
4e	me	.	.
8e	if	.	.
4e	you	.	.
8e	can	.	.
=26	=26	=26	=26
4d	_	1r	.
4d	I'm	.	.
4c#	feel-	.	.
4B	-in'	.	.
=27	=27	=27	=27
2d	down	1r	.
8c#	_	.	.
4.B	_	.	.
=28	=28	=28	=28
2r	.	1r	.
8c#	And	.	.
4d	I	.	.
[8e	do	.	.
=29	=29	=29	=29
4e]	_	1r	.
4e	a-	.	.
4e	-pre-	.	.
8e	-ci-	.	.
8e	-ate	.	.
=30	=30	=30	=30
4d	_	1r	.
8d	you	.	.
8r	.	.	.
8c#	be-	.	.
4.B	-in'	.	.
=31	=31	=31	=31
2d	round	1r	.
8c#	_	.	.
4.B	_	.	.
=32	=32	=32	=32
1r	.	1r	.
=33	=33	=33	=33
4e	Help	4b	Help
8e	me	8b	me
4e	get	4b	get
4e	my	4b	my
8e	feet	[8b	feet
=34	=34	=34	=34
4d	_	4b]	_
4d	back	4a	back
4c#	on	4g#	on
4B	the	4f#	the
=35	=35	=35	=35
2d	ground	2a	ground
8c#	_	8g#	_
4.B	_	4.f#	_
=36	=36	=36	=36
2r	.	2r	.
4e	Won't	4e	Won't
4e	you	4e	you
=37	=37	=37	=37
1cc#	please	1a	please
=38	=38	=38	=38
8b	please	8e	please
4.a	_	4.d	_
8e	help	8c#	help
4.d	_	4.B	_
=39	=39	=39	=39
4c#	me?	4A	me?
4r	.	4r	.
2r	.	2r	.
=40	=40	=40	=40
1r	.	1r	.
=41	=41	=41	=41
4r	.	1r	.
4c#	And	.	.
4c#	now	.	.
4c#	my	.	.
=42	=42	=42	=42
4c#	life	1r	.
8c#	has	.	.
4.c#	changed	.	.
4c#	in	.	.
=43	=43	=43	=43
4c#	oh	1r	.
4c#	so	.	.
8c#	ma-	.	.
4e	-ny	.	.
[8c#	ways	.	.
=44	=44	=44	=44
2c#]	_	1r	.
8B	_	.	.
8A	_	.	.
4r	.	.	.
=45	=45	=45	=45
4r	.	1r	.
4c#	My	.	.
4c#	in-	.	.
4c#	-de-	.	.
=46	=46	=46	=46
4c#	-pen-	1r	.
4c#	-dence	.	.
4c#	seems	.	.
4c#	to	.	.
=47	=47	=47	=47
8d	va-	1r	.
4.d	-nish	.	.
4d	in	.	.
8d	the	.	.
[8c#	haze	.	.
=48	=48	=48	=48
4c#]	_	1r	.
2.r	.	.	.
=49	=49	=49	=49
4r	.	1r	.
8c#	But	.	.
4.c#	e-	.	.
4c#	-very	.	.
=50	=50	=50	=50
4c#	now	1r	.
8c#	and	.	.
4c#	then	.	.
4.c#	I	.	.
=51	=51	=51	=51
4c#	feel	1r	.
4c#	so	.	.
4c#	in-	.	.
4e	-se-	.	.
=52	=52	=52	=52
2c#	-cure	1r	.
8B	_	.	.
8A	_	.	.
4r	.	.	.
=53	=53	=53	=53
8r	.	1r	.
8B#	I	.	.
8c#	know	.	.
8B#	that	.	.
4.c#	I	.	.
8B#	just	.	.
=54	=54	=54	=54
8c#	need	1r	.
8B#	you	.	.
4c#	like	.	.
4.r	.	.	.
8A	I've	.	.
=55	=55	=55	=55
8d	ne-	1r	.
4d	-ver	.	.
4d	done	.	.
4d	be-	.	.
[8c#	-fore	.	.
=56	=56	=56	=56
4c#]	_	1r	.
2.r	.	.	.
=57	=57	=57	=57
4e	Help	1r	.
4e	me	.	.
8e	if	.	.
4e	you	.	.
8e	can	.	.
=58	=58	=58	=58
4d	_	1r	.
4d	I'm	.	.
4c#	feel-	.	.
4B	-in'	.	.
=59	=59	=59	=59
2d	down	1r	.
8c#	_	.	.
4.B	_	.	.
=60	=60	=60	=60
2r	.	1r	.
8c#	And	.	.
4d	I	.	.
[8e	do	.	.
=61	=61	=61	=61
4e]	_	1r	.
4e	a-	.	.
4e	-pre-	.	.
8e	-ci-	.	.
8e	-ate	.	.
=62	=62	=62	=62
4d	_	1r	.
8d	you	.	.
8r	.	.	.
8c#	be-	.	.
4.B	-in'	.	.
=63	=63	=63	=63
2d	round	1r	.
8c#	_	.	.
4.B	_	.	.
=64	=64	=64	=64
1r	.	1r	.
=65	=65	=65	=65
4e	Help	4b	Help
8e	me	8b	me
4e	get	4b	get
4e	my	4b	my
8e	feet	[8b	feet
=66	=66	=66	=66
4d	_	4b]	_
4d	back	4a	back
4c#	on	4g#	on
4B	the	4f#	the
=67	=67	=67	=67
2d	ground	2a	ground
8c#	_	8g#	_
4.B	_	4.f#	_
=68	=68	=68	=68
2r	.	2r	.
4e	Won't	4e	Won't
4e	you	4e	you
=69	=69	=69	=69
1cc#	please	1a	please
=70	=70	=70	=70
8b	please	8e	please
4.a	_	4.d	_
8e	help	8c#	help
4.d	_	4.B	_
=71	=71	=71	=71
4c#	me?	4A	me?
4r	.	4r	.
2r	.	2r	.
=72	=72	=72	=72
1r	.	1r	.
=73	=73	=73	=73
4r	.	1r	.
8c#	When	.	.
4.c#	I	.	.
4c#	was	.	.
=74	=74	=74	=74
4c#	young-	1r	.
8c#	-er	.	.
4c#	so	.	.
4.c#	much	.	.
=75	=75	=75	=75
4c#	young-	1r	.
8c#	-er	.	.
4c#	than	.	.
4e	to-	.	.
[8c#	day	.	.
=76	=76	=76	=76
2c#]	_	1r	.
8B	_	.	.
8A	_	.	.
4r	.	.	.
=77	=77	=77	=77
8r	.	1r	.
8B#	I	.	.
8c#	ne-	.	.
8B#	-ver	.	.
4c#	need-	.	.
4B#	-ed	.	.
=78	=78	=78	=78
8c#	a-	1r	.
4B#	-ny-	.	.
4c#	-bo-	.	.
4.c#	-dy's	.	.
=79	=79	=79	=79
4d	help	1r	.
4d	in	.	.
8d	a-	.	.
4d	-ny	.	.
[8c#	way	.	.
=80	=80	=80	=80
4c#]	_	1r	.
2.r	.	.	.
=81	=81	=81	=81
4r	.	1r	.
4c#	But	.	.
4c#	now	.	.
4c#	those	.	.
=82	=82	=82	=82
4c#	days	1r	.
8c#	are	.	.
4c#	gone	.	.
4c#	I'm	.	.
8B#	_	.	.
=83	=83	=83	=83
4c#	not	1r	.
4c#	so	.	.
4c#	self	.	.
4e	a-	.	.
=84	=84	=84	=84
2c#	-ssured	1r	.
8B	_	.	.
8A	_	.	.
4r	.	.	.
=85	=85	=85	=85
4r	.	1r	.
8c#	Now	.	.
8B#	I	.	.
4.c#	find	.	.
8B#	I've	.	.
=86	=86	=86	=86
4c#	change	1r	.
8B#	my	.	.
4.c#	mind	.	.
8r	.	.	.
8A	I've	.	.
=87	=87	=87	=87
4d	o-	1r	.
4d	-pened	.	.
4d	up	.	.
8d	the	.	.
[8c#	doors	.	.
=88	=88	=88	=88
4c#]	_	1r	.
2.r	.	.	.
=89	=89	=89	=89
4e	Help	1r	.
4e	me	.	.
8e	if	.	.
4e	you	.	.
8e	can	.	.
=90	=90	=90	=90
4d	_	1r	.
4d	I'm	.	.
4c#	feel-	.	.
4B	-in'	.	.
=91	=91	=91	=91
2d	down	1r	.
8c#	_	.	.
4.B	_	.	.
=92	=92	=92	=92
2r	.	1r	.
8c#	And	.	.
4d	I	.	.
[8e	do	.	.
=93	=93	=93	=93
4e]	_	1r	.
4e	a-	.	.
4e	-pre-	.	.
8e	-ci-	.	.
8e	-ate	.	.
=94	=94	=94	=94
4d	_	1r	.
4d	you	.	.
8c#	be-	.	.
4.B	-in'	.	.
=95	=95	=95	=95
2d	round	1r	.
8c#	_	.	.
4.B	_	.	.
=96	=96	=96	=96
1r	.	1r	.
=97	=97	=97	=97
4e	Help	4b	Help
8e	me	8b	me
4e	get	4b	get
4e	my	4b	my
8e	feet	[8b	feet
=98	=98	=98	=98
4d	_	4b]	_
4d	back	4a	back
4c#	on	4g#	on
4B	the	4f#	the
=99	=99	=99	=99
2d	ground	2a	ground
8c#	_	8g#	_
4.B	_	4.f#	_
=100	=100	=100	=100
2r	.	2r	.
4e	Won't	4e	Won't
4e	you	4e	you
=101	=101	=101	=101
1cc#	please	1a	please
=102	=102	=102	=102
8b	please	8e	please
4.a	_	4.d	_
8e	help	8c#	help
4.d	_	4.B	_
=103	=103	=103	=103
4A	me?	4c#	me?
4r	.	4r	.
2r	.	4f#	Help!
.	.	4r	.
=104	=104	=104	=104
4f#	Me	2r	.
4r	.	.	.
2r	.	4f#	Help!
.	.	4r	.
=105	=105	=105	=105
4.e	Me	4.a	Me
8d	_	8f#	_
2c#	_	2e	_
=106	=106	=106	=106
1c#	Ooh	1f#	ooh
*-	*-	*-	*-
!!!ENC: Nathaniel Condit-Schultz